!!!SOCIAL_FUNCTION:	songs to insure success
!!!PDT:	1909
!!!OTL: No_69_Hunting_Song_(e).krn
!!!REG: Great_Lakes
!!!LANG: Non-Tone
!!!LING_GROUP: Algonquin
**kern
*staff1
*clefF4
*k[]
*M4/4
8r
8e\
4.e\
=
8c\
=1
*M3/4
2B\
4A\
=2||
*M4/4
2A\
4c\
4c\
=3
2B\
4B\
4r
=4
4.r
8c\
4B\
4B\
=5||
*M3/4
2A\
4F\
=6||
*M4/4
2F\
4B\
4B\
=7
2A\
4A\
4r
=8
4.r
8B\
4A\
4A\
=9||
*M3/4
2F\
4E\
=10||
*M4/4
2E\
4F\
4F\
=11
1E
=12
2E\
4B\
4B\
=13
2B\
8c\L
8c\J
4c\
=14
2B\
4F\
4E\
=15
2r
4B\
4B\
=16
2A\
4A\
4r
=17
4.r
8B\
4A\
4A\
=18||
*M3/4
2G\
4E\
=19||
*M4/4
2E\
4F\
4F\
=20
1E
=21
4E\
8r
8r
2r
*-
